X:432
T:Lady Madelina Sinclair
R:Strathspey
C:Charles Duff
B:The Athole Collection
M:C
L:1/8
K:A
f|e>A c<A c/d/e f2|e>A f/e/d/c/ B2 B>f|e>Ac>A c/e/e a2|A>Ac>B A2A:|
g|a>ef>e (3fga (3gab|a/g/f/e/ a>c B2 B>g|a>ef>e (3fga (3gab|(3agf (3efg a2
(ef/g/|
a>fg>e f>de>c|d>bc>a B3d|c/d/e f2 c/d/e a2|Aac>B A2A||

